svgs/sharp-light/envelope.svg

<svg xmlns="http://www.w3.org/2000/svg" viewBox="0 0 512 512"><!--! Font Awesome Pro 6.6.0 by @fontawesome - https://fontawesome.com License - https://fontawesome.com/license (Commercial License) Copyright 2024 Fonticons, Inc. --><path d="M32 159.2l224 154 224-154L480 96 32 96l0 63.2zM480 198L256 352 32 198l0 218 448 0 0-218zM0 416L0 176 0 96 0 64l32 0 448 0 32 0 0 32 0 80 0 240 0 32-32 0L32 448 0 448l0-32z"/></svg>

<svg xmlns="http://www.w3.org/2000/svg" viewBox="0 0 512 512"><!--! Font Awesome Pro 6.4.0 by @fontawesome - https://fontawesome.com License - https://fontawesome.com/license (Commercial License) Copyright 2023 Fonticons, Inc. --><path d="M32 159.2l224 154 224-154V96H32v63.2zM480 198L256 352 32 198V416H480V198zM0 416V176 96 64H32 480h32V96v80V416v32H480 32 0V416z"/></svg>
